app/dist/assets/images/section-2/cd_dvd.svg

<?xml version="1.0" encoding="UTF-8"?>
<svg width="40px" height="40px" viewBox="0 0 40 40" version="1.1" xmlns="http://www.w3.org/2000/svg" xmlns:xlink="http://www.w3.org/1999/xlink">
    <!-- Generator: Sketch 54 (76480) - https://sketchapp.com -->
    <title>Group 3</title>
    <desc>Created with Sketch.</desc>
    <defs>
        <polygon id="path-1" points="0 3.06905371e-05 39.9067008 3.06905371e-05 39.9067008 39.9069054 0 39.9069054"></polygon>
    </defs>
    <g id="Page-1" stroke="none" stroke-width="1" fill="none" fill-rule="evenodd">
        <g id="ICRIME-FIGHTER-How-to-quatraccent-font" transform="translate(-345.000000, -1638.000000)">
            <g id="Group-3" transform="translate(345.000000, 1638.000000)">
                <mask id="mask-2" fill="white">
                    <use xlink:href="#path-1"></use>
                </mask>
                <g id="Clip-2"></g>
                <path d="M22.0850742,13.0128184 C22.3652788,9.52217903 22.6439488,6.05138619 22.9290639,2.50038875 C21.777555,2.42601535 20.6760716,2.3548133 19.5271202,2.2805422 C19.9943325,5.85302302 20.4464041,9.31051662 20.8974527,12.7595192 C21.3016471,12.8456573 21.6661483,12.9234066 22.0850742,13.0128184 M19.9609821,16.6724604 C18.1618005,16.6690844 16.6932583,18.1243274 16.6774015,19.9263734 C16.6614425,21.7385473 18.135509,23.225913 19.9507519,23.2293913 C21.7499335,23.2327673 23.2184757,21.777422 23.2342302,19.9755806 C23.2501893,18.1633043 21.7762251,16.6759386 19.9609821,16.6724604 M19.0161228,27.0585473 C17.7923887,26.8586496 16.6926445,26.4543529 15.7358159,25.7220767 C15.5053299,25.5456061 15.3614936,25.5608491 15.146046,25.7502097 C12.6786292,27.9184962 10.202312,30.0766547 7.72619949,32.2351202 C7.67034271,32.2838159 7.58880818,32.302844 7.52241432,32.3342506 C9.58798977,34.5204399 12.8494731,36.3306701 15.446711,36.8944552 C16.6293197,33.6355294 17.8133606,30.3728184 19.0161228,27.0585473 M33.3013402,8.52402046 C31.2303427,6.1490844 28.7619028,4.44166752 25.7990384,3.38059335 C24.8620563,6.76494118 23.9371458,10.1050946 23.0057903,13.4687775 C24.2208286,14.0579335 25.1834885,14.9039693 25.9544348,16.0271407 C28.4172481,13.5119488 30.8470179,11.0304143 33.3013402,8.52402046 M18.7868645,3.06905371e-05 L21.1248696,3.06905371e-05 C21.2251253,0.0220255754 21.3244604,0.0572173913 21.4257391,0.0638670077 C23.8604194,0.225401535 26.195867,0.804122762 28.382977,1.87645013 C34.5244604,4.88729412 38.2771969,9.75655243 39.5920818,16.47911 C39.7405217,17.2381893 39.8039488,18.0139437 39.9067621,18.7819233 L39.9067621,21.1199284 C39.8840512,21.2319488 39.8485524,21.3430486 39.8406752,21.4560921 C39.6463018,24.2404399 38.9248696,26.8871918 37.5593453,29.3154271 C33.8842558,35.8506701 28.2797545,39.4087263 20.7911611,39.8700051 C17.2065064,40.0907724 13.7766343,39.322179 10.6333095,37.5716931 C4.06676215,33.9148133 0.503590793,28.2962967 0.0369923274,20.7924604 C-0.186741688,17.1938926 0.606097187,13.7615652 2.34584143,10.5969616 C5.44006138,4.96872634 10.1618005,1.52964706 16.4791407,0.314915601 C17.2404706,0.168521739 18.0172481,0.103048593 18.7868645,3.06905371e-05" id="Fill-1" fill="#3085D5" mask="url(#mask-2)"></path>
            </g>
        </g>
    </g>
</svg>

<?xml version="1.0" encoding="utf-8"?>
<!-- Generator: Adobe Illustrator 22.0.0, SVG Export Plug-In . SVG Version: 6.00 Build 0)  -->
<svg version="1.1" id="Layer_1" xmlns="http://www.w3.org/2000/svg" xmlns:xlink="http://www.w3.org/1999/xlink" x="0px" y="0px"
	 viewBox="0 0 40 40" style="enable-background:new 0 0 40 40;" xml:space="preserve">
<style type="text/css">
	.st0{filter:url(#Adobe_OpacityMaskFilter);}
	.st1{fill:#FFFFFF;}
	.st2{mask:url(#mask-2_1_);fill:#3085D5;}
</style>
<title>Group 3</title>
<desc>Created with Sketch.</desc>
<g id="Page-1">
	<g id="ICRIME-FIGHTER-How-to-quatraccent-font" transform="translate(-345.000000, -1638.000000)">
		<g id="Group-3" transform="translate(345.000000, 1638.000000)">
			<g id="Clip-2">
			</g>
			<defs>
				<filter id="Adobe_OpacityMaskFilter" filterUnits="userSpaceOnUse" x="0" y="0" width="39.9" height="39.9">
					<feColorMatrix  type="matrix" values="1 0 0 0 0  0 1 0 0 0  0 0 1 0 0  0 0 0 1 0"/>
				</filter>
			</defs>
			<mask maskUnits="userSpaceOnUse" x="0" y="0" width="39.9" height="39.9" id="mask-2_1_">
				<g class="st0">
					<polygon id="path-1_1_" class="st1" points="0,0 40,0 40,39.9 0,39.9 					"/>
				</g>
			</mask>
			<path id="Fill-1" class="st2" d="M22.1,13c0.3-3.5,0.6-7,0.8-10.5c-1.2-0.1-2.3-0.1-3.4-0.2c0.5,3.6,0.9,7,1.4,10.5
				C21.3,12.8,21.7,12.9,22.1,13 M20,16.7c-1.8,0-3.3,1.5-3.3,3.3c0,1.8,1.5,3.3,3.3,3.3c1.8,0,3.3-1.5,3.3-3.3
				C23.3,18.2,21.8,16.7,20,16.7 M19.1,27.1c-1.2-0.2-2.3-0.6-3.3-1.3c-0.2-0.2-0.4-0.2-0.6,0c-2.5,2.2-4.9,4.3-7.4,6.5
				c-0.1,0-0.1,0.1-0.2,0.1c2.1,2.2,5.3,4,7.9,4.6C16.7,33.6,17.9,30.4,19.1,27.1 M33.3,8.5c-2.1-2.4-4.5-4.1-7.5-5.1
				c-0.9,3.4-1.9,6.7-2.8,10.1c1.2,0.6,2.2,1.4,2.9,2.6C28.5,13.5,30.9,11,33.3,8.5 M18.8,0h2.3c0.1,0,0.2,0.1,0.3,0.1
				c2.4,0.2,4.8,0.7,7,1.8c6.1,3,9.9,7.9,11.2,14.6c0.1,0.8,0.2,1.5,0.3,2.3v2.3c0,0.1-0.1,0.2-0.1,0.3c-0.2,2.8-0.9,5.4-2.3,7.9
				c-3.7,6.5-9.3,10.1-16.8,10.6c-3.6,0.2-7-0.5-10.2-2.3C4.1,33.9,0.6,28.3,0.1,20.8c-0.2-3.6,0.6-7,2.3-10.2
				C5.5,5,10.2,1.5,16.5,0.3C17.3,0.2,18.1,0.1,18.8,0"/>
		</g>
	</g>
</g>
</svg>
